X:6
T:Alex Macdonald (Reel)
C:Traditional arr. Adam Blaine
R:Reel
M:C|
L:1/8
K:D
Q:"87 bpm"
[| {Gdc}d3c {g}B{d}B{e}BA | {g}B{d}B{e}Bc {Gdc}d2{g}dB | {g}cd{g}ec {g}A{d}A{e}A{d}B | {gAGAG}A2 {g}AB {g}cd{g}ec |
{gc}d3c {g}B{d}B{e}BA | {g}B{d}B{e}Bc {Gdc}d2{g}dB | {g}cd{g}eA {g}ca{g}aA | {g}ce{g}dc {g}B{d}B{e}Bc |
{Gdc}d3e {g}fd{gdedG}d2 | afad {gcd}c2{g}cB | {gAGAG}A2{g}A{d}c {g}ec{g}Ae | {g}A{d}c{g}eA {gcd}c3B | 
{g}d{e}d{G}de {g}fd{g}d{G}d | afad {gcd}c2{e}B2 | {g}cd{g}eA {g}ca{g}aA | {g}ce{g}dc {g}B{d}B{e}Bc |]

